X:1
T:Follow Me
T:Follow Me
T:Matthew Lindsay McPhail
T:G. M. Bills, 1899
T:Public Domain Courtesy of the Cyber Hymnal™
T:Public Domain Courtesy of the Cyber Hymnal™
C:Matthew Lindsay McPhail
Z:Public Domain
Z:Courtesy of the Cyber Hymnal™
%%score ( 1 2 ) ( 3 4 )
L:1/8
Q:1/4=82
M:4/4
K:Ab
V:1 treble 
V:2 treble 
V:3 bass 
V:4 bass 
V:1
 [CE][CA][CA][CB] [DA][DG] [DG]2 | [DG][DF][DG][DF] [CF]2 [CE]2 | C[CE][CA][Ec] [=Dc][DB] [DF]2 | %3
w: 1.~Like a chime of sil- ver bells|In the dark- ness ring- ing,|Comes a voice that ev- er tells|
w: 2.~Lost one, will you close your ears|To the ma- gic sto- ry,|That can charm a- way your fears|
w: 3.~Lo! the tempt- er doth de- ceive,|Lur- ing you to sad- ness;|Then he mocks you while you grieve,|
 [=Dc][DB][DA][DF] [_DB]4 | [CE][CA][CA][CB] [DA][DG] [DG]2 | [DG][DF][DG][DF] [CF]2 [CE]2 | %6
w: Of the Shep- herd’s care;|To the wan- d’rer from the fold,|Love is ev- er bring- ing,|
w: When earth’s joys de- part?|Shall the spell of e- vil hide|From your eyes the glo- ry,|
w: Point- ing to des- pair;|From his fet- ters break a- way,|Seek the path of glad- ness;|
 C[CE][CA][Ec] [=Dc][DB] [DF]2 | [FA][EG][Ec][DB] [CA]4 ||"^Refrain" c2 E2 A3 [CE] | %9
w: Tid- ings from the gates of gold,|Of a wel- come there.||
w: That for- ev- er will a- bide,|With the pure in heart?|“Fol- low Me,” O|
w: Spurn the plea- sures that de- cay,|Of their sting be- ware.||
 [CE][CF][CG][CA] [DA]2 [DG]2 | E2 d2 B3 [DB] | [DB][C=A][DB][=D=B] [Ec]4 | c2 E2 A3 [CE] | %13
w: ||||
w: hear the Shep- herd say- ing,|“Seek the door to|pas- tures ev- er fair”;|Heed, O heed thy|
w: ||||
 [CE][CF][CG][CA] [DB]2 [DF]2 | F2 d2 c3 [EA] | [EA][EG][Ec][DB] [CA]4 |] %16
w: |||
w: Sav- ior’s ten- der plead- ing;|Fol- low Him and|find a wel- come there.|
w: |||
V:2
 x8 | x8 | C x7 | x8 | x8 | x8 | C x7 | x8 || (CC) (CC) (CCC) x | x8 | (DD) (DD) (DDD) x | x8 | %12
 (CC) (CC) (CCC) x | x8 | (DD) (FF) (EEE) x | x8 |] %16
V:3
 [A,,A,][A,,E,][A,,A,][A,,A,] [E,B,][E,B,] [E,B,]2 | [E,B,][E,B,][E,B,][E,G,] [A,,A,]2 [A,,A,]2 | %2
w: ~ ~ ~ ~ ~ ~ ~|~ ~ ~ ~ ~ ~|
 [A,,E,][A,,A,][A,,E,][A,,A,] [B,,F,][B,,F,] [B,,B,]2 | [B,,F,][B,,F,][B,,B,][B,,A,] [E,G,]4 | %4
w: ~ ~ ~ ~ ~ ~ ~|~ ~ ~ ~ ~|
 A,[A,,E,][A,,A,][A,,A,] [E,B,][E,B,] [E,B,]2 | [E,B,][E,B,][E,B,][E,G,] [A,,A,]2 [A,,A,]2 | %6
w: ~ ~ ~ ~ ~ ~ ~|~ ~ ~ ~ ~ ~|
 [A,,E,][A,,A,][A,,E,][A,,A,] [B,,F,][B,,F,] [B,,B,]2 | [E,B,][E,B,][E,A,][E,G,] [A,,A,]4 || %8
w: ~ ~ ~ ~ ~ ~ ~|~ ~ ~ ~ ~|
 [A,,A,][A,,A,][A,,A,][A,,A,] [A,,E,][A,,E,][A,,E,][A,,E,] | %9
w: “Fol- low, fol- low, fol- low Me,” ~|
 [A,,A,][A,,A,][A,,E,][A,,A,] [B,,E,]2 [B,,E,]2 | %10
w: ~ ~ ~ ~ ~ ~|
 [E,G,][E,G,] [E,G,][E,G,] [E,G,][E,G,][E,G,][E,G,] | [E,G,][E,G,][E,G,][E,G,] [A,,A,]4 | %12
w: “Seek the door to pas- tures fair,” ~|~ ~ ~ ~ ~|
 [A,,A,][A,,A,][A,,A,][A,,A,] [A,,E,][A,,E,][A,,E,][A,,A,] | %13
w: Heed, O heed thy Sav- ior’s voice, O|
 [A,,A,][A,,A,][A,,E,][A,,A,] [D,F,]2 [D,B,]2 | [D,A,][D,A,][D,A,][D,A,] [E,A,][E,A,][E,A,][E,C] | %15
w: heed His ~ ~ ~ ~|Fol- low in His foot- steps, Find a|
 [E,C][E,B,][E,A,][E,G,] [A,,A,]4 |] %16
w: bless- èd wel- come there.|
V:4
 x8 | x8 | x8 | x8 | A, x7 | x8 | x8 | x8 || x8 | x8 | x8 | x8 | x8 | x8 | x8 | x8 |] %16

